X:153
T:Spanish Ladies (b)
M:3/4
L:1/8
Q:1/4=120
K:GDor
zD|\
G2 G2 A2|B2 B2 c2|d2 c2 B2|AG D2 D2|
G2 G2 AB|c2 BA G2|A4    A2|
B2 A2 G2|B2 A2 GG|d2 G2 B2|AG D2 dc|
B2 A2 G2|G^FD2 DD|D2 B2 A2|G4 ||
